images/playdapp.svg

<svg height="250" viewBox="0 0 250 250" width="250" xmlns="http://www.w3.org/2000/svg"><path d="m.0976562.242188h249.9999998v250h-249.9999998zm0 0" fill="#04d6b4"/><g fill="#fff"><path d="m73.242188 85.546875c-1.953126-1.21875-3.664063-2.6875-5.175782-4.394531v103.90625c-.390625 9.910156 7.324219 18.308594 17.238282 18.699218 9.910156.390626 18.308593-7.320312 18.699218-17.234374 0-.488282 0-.976563 0-1.464844v-80.273438zm0 0"/><path d="m197.21875 115.527344c-5.277344-8.449219-16.359375-10.988282-24.808594-5.714844l-62.304687 38.917969v36.328125c0 2.292968-.339844 4.542968-.976563 6.738281l82.324219-51.464844c8.5-5.273437 11.039063-16.355469 5.765625-24.804687zm0 0"/><path d="m76.515625 80.371094 65.71875 41.113281 26.953125-16.84375c2.636719-1.664063 5.617188-2.785156 8.691406-3.320313l-82.324218-51.46875c-8.445313-5.273437-19.53125-2.683593-24.804688 5.714844-5.273438 8.398438-2.683594 19.53125 5.765625 24.804688zm0 0"/></g></svg>

<!-- Generator: Adobe Illustrator 24.3.0, SVG Export Plug-In . SVG Version: 6.00 Build 0)  -->
<svg xmlns="http://www.w3.org/2000/svg" xmlns:xlink="http://www.w3.org/1999/xlink" width="250px" height="250px" viewBox="0 0 250 250" version="1.1">
<g id="surface1">
<path style=" stroke:none;fill-rule:nonzero;fill:rgb(1.568628%,83.92157%,70.588237%);fill-opacity:1;" d="M 0.0976562 0.242188 L 250.097656 0.242188 L 250.097656 250.242188 L 0.0976562 250.242188 Z M 0.0976562 0.242188 "/>
<path style=" stroke:none;fill-rule:nonzero;fill:rgb(100%,100%,100%);fill-opacity:1;" d="M 73.242188 85.546875 C 71.289062 84.328125 69.578125 82.859375 68.066406 81.152344 L 68.066406 185.058594 C 67.675781 194.96875 75.390625 203.367188 85.304688 203.757812 C 95.214844 204.148438 103.613281 196.4375 104.003906 186.523438 C 104.003906 186.035156 104.003906 185.546875 104.003906 185.058594 L 104.003906 104.785156 Z M 73.242188 85.546875 "/>
<path style=" stroke:none;fill-rule:nonzero;fill:rgb(100%,100%,100%);fill-opacity:1;" d="M 197.21875 115.527344 C 191.941406 107.078125 180.859375 104.539062 172.410156 109.8125 L 110.105469 148.730469 L 110.105469 185.058594 C 110.105469 187.351562 109.765625 189.601562 109.128906 191.796875 L 191.453125 140.332031 C 199.953125 135.058594 202.492188 123.976562 197.21875 115.527344 Z M 197.21875 115.527344 "/>
<path style=" stroke:none;fill-rule:nonzero;fill:rgb(100%,100%,100%);fill-opacity:1;" d="M 76.515625 80.371094 L 142.234375 121.484375 L 169.1875 104.640625 C 171.824219 102.976562 174.804688 101.855469 177.878906 101.320312 L 95.554688 49.851562 C 87.109375 44.578125 76.023438 47.167969 70.75 55.566406 C 65.476562 63.964844 68.066406 75.097656 76.515625 80.371094 Z M 76.515625 80.371094 "/>
</g>
</svg>
